Gurmukhi/0A6C.svg

<svg enable-background="new 0 0 336 592" viewBox="0 0 336 592" xmlns="http://www.w3.org/2000/svg"><path d="m216.379211 203.403687c6.425431 1.618652 12.130631 3.87088 17.169968 7.57724 4.567749 3.359512 7.704102 7.613159 6.52034 13.58554-1.196243 6.035309-5.806 8.669998-11.363739 9.787689-13.712189 2.757538-26.842163-.163116-38.504929-6.869445-7.891464-4.537735-14.990188-4.298279-22.819183-2.030686-8.029007 2.325516-15.243515 6.124604-19.919662 13.334107-10.153916 15.654937-1.615372 34.035019 15.131713 41.385818 1.31099.57544 2.557953.299957 3.88234-.072998 13.086472-3.685516 26.441681-5.089264 40.002274-4.397308 7.02565.358459 13.843017 1.757751 20.230667 4.875732 5.516403 2.692658 9.200286 6.762482 8.999908 13.184052-.189987 6.088073-4.210266 9.554168-9.368668 11.830169-9.937408 4.384705-20.440429 4.306977-30.928115 3.327301-7.109772-.664154-14.153931-2.008575-21.012619-4.146514-1.089615-.339661-2.297593-.530396-3.431168-.46225-10.719254.644043-23.571533 12.023895-26.277939 23.19162-2.872986 11.855133 2.62265 24.506286 13.411804 30.810424 8.083496 4.723206 16.943406 6.774201 26.178955 7.343689 17.58104 1.084015 34.461182-2.332946 50.780259-8.574249 4.087936-1.563385 5.999191-1.143707 7.064758 3.305115 1.276321 5.328827 3.024048 10.550049 4.699646 15.775543.751892 2.344879.197021 3.831238-2.104355 4.749939-29.617889 11.823181-59.484573 14.658386-89.027771.495361-19.908417-9.544128-32.526741-25.460022-34.488403-47.992096-1.521141-17.472168 5.012939-31.935455 19.490783-42.395111 1.330689-.961395 2.714692-1.848999 4.508927-3.065857-2.880417-1.920837-5.512253-3.547546-8.008896-5.360443-27.998138-20.330322-24.310883-59.29512 6.962494-74.076278 6.965271-3.292115 14.148743-5.813919 21.792114-6.915711 3.48407-.502228 5.021256-1.516952 4.117584-5.862854-4.039871-19.428314 8.941117-37.077637 28.779251-40.077133 7.365479-1.113632 14.61142-1.280624 21.690781 1.212265 6.73082 2.370132 11.505798 6.704865 12.542374 14.145432.733093 5.262329-1.26059 6.870361-6.333084 5.53865-10.363297-2.720764-20.676453-3.619018-30.658265 1.47699-6.832672 3.488266-9.624633 8.894684-8.850051 16.340423.367569 3.533387 1.754913 5.288849 5.611892 5.455674 7.808472.337722 15.557343 1.397293 23.528015 3.57016z"/></svg>

<svg version="1.1" id="Layer_1" xmlns="http://www.w3.org/2000/svg" xmlns:xlink="http://www.w3.org/1999/xlink" x="0px" y="0px"
	 width="100%" viewBox="0 0 336 592" enable-background="new 0 0 336 592" xml:space="preserve">
<path fill="#000000" opacity="1.000000" stroke="none" 
	d="
M216.379211,203.403687 
	C222.804642,205.022339 228.509842,207.274567 233.549179,210.980927 
	C238.116928,214.340439 241.253281,218.594086 240.069519,224.566467 
	C238.873276,230.601776 234.263519,233.236465 228.705780,234.354156 
	C214.993591,237.111694 201.863617,234.191040 190.200851,227.484711 
	C182.309387,222.946976 175.210663,223.186432 167.381668,225.454025 
	C159.352661,227.779541 152.138153,231.578629 147.462006,238.788132 
	C137.308090,254.443069 145.846634,272.823151 162.593719,280.173950 
	C163.904709,280.749390 165.151672,280.473907 166.476059,280.100952 
	C179.562531,276.415436 192.917740,275.011688 206.478333,275.703644 
	C213.503983,276.062103 220.321350,277.461395 226.709000,280.579376 
	C232.225403,283.272034 235.909286,287.341858 235.708908,293.763428 
	C235.518921,299.851501 231.498642,303.317596 226.340240,305.593597 
	C216.402832,309.978302 205.899811,309.900574 195.412125,308.920898 
	C188.302353,308.256744 181.258194,306.912323 174.399506,304.774384 
	C173.309891,304.434723 172.101913,304.243988 170.968338,304.312134 
	C160.249084,304.956177 147.396805,316.336029 144.690399,327.503754 
	C141.817413,339.358887 147.313049,352.010040 158.102203,358.314178 
	C166.185699,363.037384 175.045609,365.088379 184.281158,365.657867 
	C201.862198,366.741882 218.742340,363.324921 235.061417,357.083618 
	C239.149353,355.520233 241.060608,355.939911 242.126175,360.388733 
	C243.402496,365.717560 245.150223,370.938782 246.825821,376.164276 
	C247.577713,378.509155 247.022842,379.995514 244.721466,380.914215 
	C215.103577,392.737396 185.236893,395.572601 155.693695,381.409576 
	C135.785278,371.865448 123.166954,355.949554 121.205292,333.417480 
	C119.684151,315.945312 126.218231,301.482025 140.696075,291.022369 
	C142.026764,290.060974 143.410767,289.173370 145.205002,287.956512 
	C142.324585,286.035675 139.692749,284.408966 137.196106,282.596069 
	C109.197968,262.265747 112.885223,223.300949 144.158600,208.519791 
	C151.123871,205.227676 158.307343,202.705872 165.950714,201.604080 
	C169.434784,201.101852 170.971970,200.087128 170.068298,195.741226 
	C166.028427,176.312912 179.009415,158.663589 198.847549,155.664093 
	C206.213028,154.550461 213.458969,154.383469 220.538330,156.876358 
	C227.269150,159.246490 232.044128,163.581223 233.080704,171.021790 
	C233.813797,176.284119 231.820114,177.892151 226.747620,176.560440 
	C216.384323,173.839676 206.071167,172.941422 196.089355,178.037430 
	C189.256683,181.525696 186.464722,186.932114 187.239304,194.377853 
	C187.606873,197.911240 188.994217,199.666702 192.851196,199.833527 
	C200.659668,200.171249 208.408539,201.230820 216.379211,203.403687 
z"/>
</svg>
